X: 8959
T: Curupira
R: reel
M: 4/4
K: Gmajor
B|cAAA cAAB|dedc BAGB|cAAA cAAG|EBAG AAAB|
cAAA cAAB|dedc BABd|gedB AGEG|BAGA A2A:|
B|c2cd edde|gedB AGAB|~c3d edde|gedB AGAB|c2cd edde|
gede ~a3b|aged edBA|1 GEGA A3:|2 edBA G2A||

